public/avatar/shoe/84.svg

<svg xmlns:xlink="http://www.w3.org/1999/xlink" height="38.3" width="36.05" xmlns="http://www.w3.org/2000/svg"><use height="15.8" transform="translate(9.5 12.8)" width="23" xlink:href="#a"/><defs><g id="a" fill-rule="evenodd"><path d="M-8 1.9q-4.2 2.75-4.45 9.3 2.9 1.35 6.95 1.1 3.6-.2 5.5-1.45 1.3-.8 3.05-2.85 1.45-1.6 2.1-1.7l.7.35.45.7q.8-3.25.8-5.65l-.05-.5Q3.9-1.3-2.05-.45-5.4.1-8 1.9m2.35 11.85q-4.6.2-7.8-1.45l-.3-.2-.1-.4Q-13.9 4-8.7.75-5.85-1.2-2.25-1.8 4.6-2.85 8 .2q1.65 1.4-.7 8.45-.2 1-.9 1-.95 0-1.15-1.2L5 7.9l-.9 1Q2 11.2.7 12.05q-2.25 1.4-6.35 1.7" fill="#7c3a04" transform="translate(14.3 2.05)"/><path d="M7.4 1.05q.65.55-1.15 7.7-.35-1.05-1-1.7Q5 6.7 3.65 8.2q-1.9 2.1-3.1 2.85-2.1 1.3-6 1.5-4.15.2-7-1.3Q-12.6 4.7-7.9 1.6-5.05-.2-1.95-.65q6.1-.9 9.35 1.7" fill="#fed649" transform="translate(14.3 2.05)"/><path d="M3.6 5.2Q-.1 7.3-2.25 7.15-4.1 3.05-7.9 2.4l1.45-.95Q-4.55.4-2.25 0q3.7-.65 7.35.65 4.65 1.2-1.5 4.55" fill="#7c3a04" transform="translate(14.3 2.05)"/><path d="m-8 3.35 4.25 4.25q.2.75 2.6.4 2.35-.25 3.1-.85-2.55 3.7-6.35 4.05l-6.6-.6q-.5-4.2 3-7.25" fill="#ffffb3" transform="translate(14.3 2.05)"/><path d="M-10.05 1.05-7.8 3.4q.15.05.15.4h-.1q.55.1 1.15.75l.1.1-.05.1.25-.1.6.05 4.4 1.75h.05v.05q.55.35.35.75-.2.55-2 1.35l-1 .4-.6.75q-.7 1.6-2.05 1.3-1.3-.3-2.3-2.9l-1.4 2.2q-.55.35-1.7-1.05l-.25-.25q-.2-.2.2-.85l-.55.25q-1.2.55-1.6-1.35l.05-.4q.35-.45 1.45-.95-1.45-.4-1.65-1-.1-.85 1.2-1.35l.7-.45.4-.65 1.15-1.3.7.05h.1" fill="#cd3f00" transform="translate(14.3 2.05)"/><path d="M-10.15 1.65-8.5 3.6q.4.2-1.1.75l-.75 1.3q-2.9-.15-3.1-.95l1.7-1.45q1.35-1.75 1.6-1.6m8.1 5q.55.45-.5.95l-1.85.85q-.75 2.1-2.05 1.85-.75-.15-1.55-1.7l-.55-1.55 1.6-.6.85-1.25 4.05 1.45" fill="#ff9500" transform="translate(14.3 2.05)"/><path d="m-6.95 4.9-.45 1.15q-.65.85-1.9.45l-.55-.5.5-1.15q.2-.35 1.35-.65.35 0 1.05.7m-3.1 1.55.65.65.2.7-.95 1.9-1.35-1.1.85-1.35-1.5.7q-.7.25-1.15-1.1l1.4-.7 1.85.3" fill="#ff9500" transform="translate(14.3 2.05)"/><path d="M-4.75 6.4q2.4.45 2.05.7-1.25.2-1.95.85-.8 1.35-1.4 1.6l-.9-.15q-.45-.5-.25-.95l1.5-.85.95-1.2M-9.6 3.15l-1.3.75-.8 1.1-.9-.05q-.4-.25-.2-.5l1.55-1.1q.65-.55.8-1.25l.85 1.05m1.85 1.7q.35.35.15.75-.25.4-1.3.55.4-.5.2-.75l.15-.45.8-.1M-9.7 8q-.1 1.1-.45 1.2l-.65-.65q.95-.1 1.1-.55m-1.3-.95q-.95.55-1.2.5l-.55-.75 1 .1.75.15" fill="#ffac00" transform="translate(14.3 2.05)"/></g></defs></svg>

<?xml version="1.0" encoding="UTF-8" standalone="no"?>
<svg xmlns:xlink="http://www.w3.org/1999/xlink" height="38.3px" width="36.05px" xmlns="http://www.w3.org/2000/svg">
  <g transform="matrix(1.0, 0.0, 0.0, 1.0, 23.8, 14.85)">
    <use height="15.8" transform="matrix(1.0, 0.0, 0.0, 1.0, -14.3, -2.05)" width="23.0" xlink:href="#shape0"/>
  </g>
  <defs>
    <g id="shape0" transform="matrix(1.0, 0.0, 0.0, 1.0, 14.3, 2.05)">
      <path d="M-8.0 1.9 Q-12.2 4.65 -12.45 11.2 -9.55 12.55 -5.5 12.3 -1.9 12.1 0.0 10.85 1.3 10.05 3.05 8.0 4.5 6.4 5.15 6.3 L5.85 6.65 6.3 7.35 Q7.1 4.1 7.1 1.7 L7.05 1.2 Q3.9 -1.3 -2.05 -0.45 -5.4 0.1 -8.0 1.9 M-5.65 13.75 Q-10.25 13.95 -13.45 12.3 L-13.75 12.1 -13.85 11.7 Q-13.9 4.0 -8.7 0.75 -5.85 -1.2 -2.25 -1.8 4.6 -2.85 8.0 0.2 9.65 1.6 7.3 8.65 7.1 9.65 6.4 9.65 5.45 9.65 5.25 8.45 L5.0 7.9 4.1 8.9 Q2.0 11.2 0.7 12.05 -1.55 13.45 -5.65 13.75" fill="#7c3a04" fill-rule="evenodd" stroke="none"/>
      <path d="M7.4 1.05 Q8.05 1.6 6.25 8.75 5.9 7.7 5.25 7.05 5.0 6.7 3.65 8.2 1.75 10.3 0.55 11.05 -1.55 12.35 -5.45 12.55 -9.6 12.75 -12.45 11.25 -12.6 4.7 -7.9 1.6 -5.05 -0.2 -1.95 -0.65 4.15 -1.55 7.4 1.05" fill="#fed649" fill-rule="evenodd" stroke="none"/>
      <path d="M3.6 5.2 Q-0.1 7.3 -2.25 7.15 -4.1 3.05 -7.9 2.4 L-6.45 1.45 Q-4.55 0.4 -2.25 0.0 1.45 -0.65 5.1 0.65 9.75 1.85 3.6 5.2" fill="#7c3a04" fill-rule="evenodd" stroke="none"/>
      <path d="M-8.0 3.35 L-3.75 7.6 Q-3.55 8.35 -1.15 8.0 1.2 7.75 1.95 7.15 -0.6 10.85 -4.4 11.2 L-11.0 10.6 Q-11.5 6.4 -8.0 3.35" fill="#ffffb3" fill-rule="evenodd" stroke="none"/>
      <path d="M-10.05 1.05 L-7.8 3.4 Q-7.65 3.45 -7.65 3.8 L-7.75 3.8 Q-7.2 3.9 -6.6 4.55 L-6.5 4.65 -6.55 4.75 -6.3 4.65 -5.7 4.7 -1.3 6.45 -1.25 6.45 -1.25 6.5 Q-0.7 6.85 -0.9 7.25 -1.1 7.8 -2.9 8.6 L-3.9 9.0 -4.5 9.75 Q-5.2 11.35 -6.55 11.05 -7.85 10.75 -8.85 8.15 L-10.25 10.35 Q-10.8 10.7 -11.95 9.3 L-12.2 9.05 Q-12.4 8.85 -12.0 8.2 L-12.55 8.45 Q-13.75 9.0 -14.15 7.1 L-14.1 6.7 Q-13.75 6.25 -12.65 5.75 -14.1 5.35 -14.3 4.75 -14.4 3.9 -13.1 3.4 L-12.4 2.95 -12.0 2.3 -10.85 1.0 -10.15 1.05 -10.05 1.05" fill="#cd3f00" fill-rule="evenodd" stroke="none"/>
      <path d="M-10.15 1.65 L-8.5 3.6 Q-8.1 3.8 -9.6 4.35 L-10.35 5.65 Q-13.25 5.5 -13.45 4.7 L-11.75 3.25 Q-10.4 1.5 -10.15 1.65" fill="#ff9500" fill-rule="evenodd" stroke="none"/>
      <path d="M-2.05 6.65 Q-1.5 7.1 -2.55 7.6 L-4.4 8.45 Q-5.15 10.55 -6.45 10.3 -7.2 10.15 -8.0 8.6 L-8.55 7.05 -6.95 6.45 -6.1 5.2 -2.05 6.65" fill="#ff9500" fill-rule="evenodd" stroke="none"/>
      <path d="M-6.95 4.9 L-7.4 6.05 Q-8.05 6.9 -9.3 6.5 L-9.85 6.0 -9.35 4.85 Q-9.15 4.5 -8.0 4.2 -7.65 4.2 -6.95 4.9" fill="#ff9500" fill-rule="evenodd" stroke="none"/>
      <path d="M-10.05 6.45 L-9.4 7.1 -9.2 7.8 -10.15 9.7 -11.5 8.6 -10.65 7.25 -12.15 7.95 Q-12.85 8.2 -13.3 6.85 L-11.9 6.15 -10.05 6.45" fill="#ff9500" fill-rule="evenodd" stroke="none"/>
      <path d="M-4.75 6.4 Q-2.35 6.85 -2.7 7.1 -3.95 7.3 -4.65 7.95 -5.45 9.3 -6.05 9.55 L-6.95 9.4 Q-7.4 8.9 -7.2 8.45 L-5.7 7.6 -4.75 6.4" fill="#ffac00" fill-rule="evenodd" stroke="none"/>
      <path d="M-9.6 3.15 L-10.9 3.9 -11.7 5.0 -12.6 4.95 Q-13.0 4.7 -12.8 4.45 L-11.25 3.35 Q-10.6 2.8 -10.45 2.1 L-9.6 3.15" fill="#ffac00" fill-rule="evenodd" stroke="none"/>
      <path d="M-7.75 4.85 Q-7.4 5.2 -7.6 5.6 -7.85 6.0 -8.9 6.15 -8.5 5.65 -8.7 5.4 L-8.55 4.95 -7.75 4.85" fill="#ffac00" fill-rule="evenodd" stroke="none"/>
      <path d="M-9.7 8.0 Q-9.8 9.1 -10.15 9.2 L-10.8 8.55 Q-9.85 8.45 -9.7 8.0" fill="#ffac00" fill-rule="evenodd" stroke="none"/>
      <path d="M-11.0 7.05 Q-11.95 7.6 -12.2 7.55 L-12.75 6.8 -11.75 6.9 -11.0 7.05" fill="#ffac00" fill-rule="evenodd" stroke="none"/>
    </g>
  </defs>
</svg>
